src/lib/packages/icons/src/assets/filled/hotdog.svg

<svg width="24" height="24" viewBox="0 0 24 24" fill="none" xmlns="http://www.w3.org/2000/svg">
<path d="M2.95 14.4001C2.66 13.9901 2.5 13.5001 2.5 12.9801C2.5 12.3201 2.75 11.7001 3.22 11.2301L11.22 3.2401C12.08 2.3901 13.43 2.30009 14.39 2.97009L2.95 14.4001ZM21.02 9.62009L9.61 21.0401C10.02 21.3401 10.5 21.5001 11.02 21.5001H11.03C11.69 21.5001 12.31 21.2401 12.77 20.7801L20.77 12.7801C21.61 11.9201 21.7 10.5801 21.02 9.62009ZM20.06 8.4601L20 8.53009H19.99L19.64 8.8801L19.29 9.23009L9.23 19.3001H9.22L8.87 19.6501L8.52 20.0101L8.48 20.0501C7.86 20.6701 7.04 20.9801 6.22 20.9801C5.4 20.9801 4.59001 20.6701 3.96001 20.0501H3.95C2.71 18.7901 2.71 16.7701 3.95 15.5201L3.99001 15.4801L4.35001 15.1301L4.7 14.7801L14.76 4.7101H14.77L15.12 4.36009L15.54 3.94009C16.16 3.31009 16.98 3.00009 17.8 3.00009C18.62 3.00009 19.43 3.31009 20.05 3.94009H20.06C21.31 5.19009 21.31 7.2201 20.06 8.4601ZM17.89 6.8201C17.6 6.5301 17.12 6.5301 16.83 6.8201C16.5 7.1501 16.27 7.19008 15.88 7.26008C15.42 7.34008 14.79 7.45009 14.12 8.11009C13.45 8.77009 13.34 9.41009 13.27 9.87009C13.2 10.2601 13.16 10.4901 12.83 10.8201C12.5 11.1501 12.27 11.1901 11.88 11.2601C11.42 11.3401 10.79 11.4501 10.12 12.1101C9.45 12.7801 9.33999 13.4101 9.25999 13.8701C9.18999 14.2601 9.15001 14.4901 8.82001 14.8201C8.49001 15.1501 8.25999 15.1901 7.87 15.2601C7.41 15.3401 6.78 15.4501 6.11 16.1201C5.82 16.4101 5.82 16.8901 6.11 17.1801C6.26 17.3301 6.45 17.4001 6.64 17.4001C6.83 17.4001 7.02 17.3301 7.17 17.1801C7.5 16.8501 7.73 16.8101 8.12 16.7401C8.58 16.6601 9.21 16.5501 9.88 15.8801C10.55 15.2101 10.66 14.5801 10.74 14.1201C10.81 13.7301 10.85 13.5001 11.18 13.1701C11.51 12.8401 11.74 12.8001 12.13 12.7301C12.59 12.6501 13.22 12.5401 13.89 11.8801C14.56 11.2101 14.67 10.5801 14.74 10.1201C14.81 9.73009 14.85 9.50009 15.18 9.17009C15.51 8.84009 15.74 8.80009 16.13 8.73009C16.59 8.65009 17.22 8.54009 17.89 7.8801C18.18 7.5901 18.18 7.1101 17.89 6.8201Z" fill="currentColor"/>
</svg>

<svg xmlns="http://www.w3.org/2000/svg" width="24" height="24" fill="none"><path fill="currentColor" d="M2.95 14.4c-.29-.41-.45-.9-.45-1.42 0-.66.25-1.28.72-1.75l8-7.99a2.5 2.5 0 0 1 3.17-.27L2.95 14.4Zm18.07-4.78L9.61 21.04c.41.3.89.46 1.41.46h.01c.66 0 1.28-.26 1.74-.72l8-8c.84-.86.93-2.2.25-3.16Zm-.96-1.16-.06.07h-.01l-.35.35-.35.35L9.23 19.3h-.01l-.35.35-.35.36-.04.04c-.62.62-1.44.93-2.26.93-.82 0-1.63-.31-2.26-.93h-.01a3.223 3.223 0 0 1 0-4.53l.04-.04.36-.35.35-.35L14.76 4.71h.01l.35-.35.42-.42c.62-.63 1.44-.94 2.26-.94.82 0 1.63.31 2.25.94h.01a3.193 3.193 0 0 1 0 4.52Zm-2.17-1.64a.754.754 0 0 0-1.06 0c-.33.33-.56.37-.95.44-.46.08-1.09.19-1.76.85-.67.66-.78 1.3-.85 1.76-.07.39-.11.62-.44.95-.33.33-.56.37-.95.44-.46.08-1.09.19-1.76.85-.67.67-.78 1.3-.86 1.76-.07.39-.11.62-.44.95-.33.33-.56.37-.95.44-.46.08-1.09.19-1.76.86-.29.29-.29.77 0 1.06.15.15.34.22.53.22s.38-.07.53-.22c.33-.33.56-.37.95-.44.46-.08 1.09-.19 1.76-.86.67-.67.78-1.3.86-1.76.07-.39.11-.62.44-.95.33-.33.56-.37.95-.44.46-.08 1.09-.19 1.76-.85.67-.67.78-1.3.85-1.76.07-.39.11-.62.44-.95.33-.33.56-.37.95-.44.46-.08 1.09-.19 1.76-.85.29-.29.29-.77 0-1.06Z"/></svg>
